;FLAVOR:Marlin
;TIME:12854
;Filament used: 12.3922m
;Layer height: 0.28
;MINX:118.074
;MINY:127.2
;MINZ:0.28
;MAXX:181.926
;MAXY:171.926
;MAXZ:70
;Generated with Cura_SteamEngine 4.4.1
M140 S60
M105
M190 S60
M104 S200
M105
M109 S200
M82 ;absolute extrusion mode
M201 X500.00 Y500.00 Z100.00 E5000.00 ;Setup machine max acceleration
M203 X500.00 Y500.00 Z10.00 E50.00 ;Setup machine max feedrate
M204 P500.00 R1000.00 T500.00 ;Setup Print/Retract/Travel acceleration
M205 X8.00 Y8.00 Z0.40 E5.00 ;Setup Jerk
M220 S100 ;Reset Feedrate
M221 S100 ;Reset Flowrate

G28 ;Home

G92 E0 ;Reset Extruder
G1 Z2.0 F3000 ;Move Z Axis up
G1 X10.1 Y20 Z0.28 F5000.0 ;Move to start position
G1 X10.1 Y200.0 Z0.28 F1500.0 E15 ;Draw the first line
G1 X10.4 Y200.0 Z0.28 F5000.0 ;Move to side a little
G1 X10.4 Y20 Z0.28 F1500.0 E30 ;Draw the second line
G92 E0 ;Reset Extruder
G1 Z2.0 F3000 ;Move Z Axis up

G92 E0
G92 E0
G1 F1500 E-6.5
;LAYER_COUNT:250
;LAYER:0
M107
G0 F6000 X120.499 Y129.349 Z0.28
;TYPE:SKIRT
G1 F1500 E0
G1 F1200 X121.098 Y128.834 E0.03678
G1 X121.746 Y128.383 E0.07355
G1 X122.436 Y127.999 E0.11032
G1 X123.161 Y127.687 E0.14707
G1 X123.915 Y127.45 E0.18387
G1 X124.688 Y127.291 E0.22062
G1 X125.474 Y127.21 E0.25741
G1 X125.875 Y127.2 E0.27609
G1 X174.125 Y127.2 E2.52281
G1 X174.914 Y127.24 E2.5596
G1 X175.694 Y127.359 E2.59634
G1 X176.459 Y127.557 E2.63313
G1 X177.199 Y127.831 E2.66988
G1 X177.908 Y128.179 E2.70665
G1 X178.579 Y128.597 E2.74347
G1 X179.203 Y129.08 E2.78021
G1 X179.776 Y129.623 E2.81697
G1 X180.291 Y130.222 E2.85375
G1 X180.742 Y130.87 E2.89051
G1 X181.126 Y131.561 E2.92732
G1 X181.438 Y132.286 E2.96408
G1 X181.675 Y133.039 E3.00083
G1 X181.834 Y133.813 E3.03763
G1 X181.915 Y134.598 E3.07437
G1 X181.925 Y135 E3.0931
G1 X181.926 Y163.5 E4.42018
G1 X181.886 Y164.288 E4.45692
G1 X181.767 Y165.069 E4.4937
G1 X181.546 Y165.904 E4.53392
G1 X181.465 Y166.154 E4.54616
G1 X181.184 Y166.892 E4.58293
G1 X180.83 Y167.598 E4.61971
G1 X180.567 Y168.028 E4.64318
G1 X180.485 Y168.153 E4.65014
G1 X180.019 Y168.791 E4.68693
G1 X179.491 Y169.378 E4.72369
G1 X178.906 Y169.909 E4.76048
G1 X177.981 Y170.561 E4.81318
G1 X177.768 Y170.689 E4.82475
G1 X177.171 Y171.013 E4.85638
G1 X176.921 Y171.135 E4.86933
G1 X176.194 Y171.445 E4.90613
G1 X175.441 Y171.68 E4.94286
G1 X174.667 Y171.837 E4.97964
G1 X173.5 Y171.925 E5.03413
G1 X126.499 Y171.926 E7.22269
G1 X125.71 Y171.886 E7.25948
G1 X124.93 Y171.767 E7.29622
G1 X124.165 Y171.569 E7.33302
G1 X123.486 Y171.321 E7.36668
G1 X123.037 Y171.133 E7.38934
G1 X122.325 Y170.791 E7.42612
G1 X121.652 Y170.38 E7.46284
G1 X121.023 Y169.902 E7.49963
G1 X120.446 Y169.363 E7.5364
G1 X119.926 Y168.768 E7.57319
G1 X119.469 Y168.125 E7.60992
G1 X119.079 Y167.438 E7.64671
G1 X118.807 Y166.832 E7.67764
G1 X118.632 Y166.394 E7.6996
G1 X118.376 Y165.647 E7.73637
G1 X118.198 Y164.878 E7.77312
G1 X118.098 Y164.094 E7.80993
G1 X118.075 Y163.503 E7.83747
G1 X118.074 Y161.193 E7.94503
G1 X118.074 Y161.19 E7.94517
G1 X118.075 Y135 E9.16469
G1 X118.115 Y134.211 E9.20147
G1 X118.235 Y133.43 E9.23827
G1 X118.432 Y132.666 E9.275
G1 X118.707 Y131.925 E9.31181
G1 X119.054 Y131.216 E9.34856
G1 X119.472 Y130.546 E9.38534
G1 X119.955 Y129.921 E9.42212
G1 X120.499 Y129.349 E9.45887
G0 F6000 X120.891 Y129.53
G1 F1200 X121.486 Y129.042 E9.49471
G1 X122.128 Y128.619 E9.5305
G1 X122.811 Y128.264 E9.56635
G1 X123.527 Y127.982 E9.60218
G1 X124.268 Y127.777 E9.63798
G1 X125.026 Y127.649 E9.67378
G1 X125.875 Y127.6 E9.71337
G1 X174.125 Y127.6 E11.9601
G1 X174.893 Y127.64 E11.99591
G1 X175.653 Y127.759 E12.03173
G1 X176.396 Y127.957 E12.06753
G1 X177.115 Y128.231 E12.10336
G1 X177.801 Y128.578 E12.13916
G1 X178.448 Y128.994 E12.17497
G1 X179.048 Y129.475 E12.21078
G1 X179.595 Y130.016 E12.24661
G1 X180.083 Y130.611 E12.28244
G1 X180.506 Y131.253 E12.31824
G1 X180.861 Y131.936 E12.35408
G1 X181.142 Y132.651 E12.38985
G1 X181.348 Y133.393 E12.42571
G1 X181.476 Y134.151 E12.46151
G1 X181.525 Y135 E12.5011
G1 X181.526 Y163.5 E13.82818
G1 X181.486 Y164.268 E13.86399
G1 X181.367 Y165.028 E13.89981
G1 X181.166 Y165.781 E13.9361
G1 X181.085 Y166.031 E13.94834
G1 X180.81 Y166.749 E13.98414
G1 X180.462 Y167.435 E14.01996
G1 X180.232 Y167.809 E14.0404
G1 X180.15 Y167.934 E14.04737
G1 X179.696 Y168.554 E14.08315
G1 X179.179 Y169.124 E14.11898
G1 X178.606 Y169.637 E14.15479
G1 X177.775 Y170.218 E14.20201
G1 X177.562 Y170.346 E14.21358
G1 X176.995 Y170.653 E14.2436
G1 X176.745 Y170.775 E14.25656
G1 X176.038 Y171.076 E14.29234
G1 X175.302 Y171.302 E14.32819
G1 X174.548 Y171.45 E14.36397
G1 X173.5 Y171.525 E14.41289
G1 X126.499 Y171.526 E16.60145
G1 X125.731 Y171.486 E16.63726
G1 X124.971 Y171.367 E16.67308
G1 X124.228 Y171.169 E16.70889
G1 X123.641 Y170.952 E16.73803
G1 X123.192 Y170.764 E16.76069
G1 X122.499 Y170.43 E16.79652
G1 X121.844 Y170.027 E16.83233
G1 X121.235 Y169.557 E16.86815
G1 X120.678 Y169.027 E16.90395
G1 X120.178 Y168.442 E16.93978
G1 X119.743 Y167.808 E16.97558
G1 X119.375 Y167.132 E17.01142
G1 X119.178 Y166.684 E17.03421
G1 X119.003 Y166.246 E17.05617
G1 X118.755 Y165.517 E17.09203
G1 X118.584 Y164.768 E17.1278
G1 X118.492 Y164.004 E17.16364
G1 X118.475 Y163.503 E17.18698
G1 X118.474 Y161.193 E17.29454
G1 X118.474 Y161.19 E17.29468
G1 X118.475 Y135 E18.5142
G1 X118.515 Y134.232 E18.55001
G1 X118.635 Y133.472 E18.58583
G1 X118.832 Y132.728 E18.62167
G1 X119.106 Y132.01 E18.65746
G1 X119.453 Y131.323 E18.6933
G1 X119.869 Y130.677 E18.72907
G1 X120.351 Y130.077 E18.76491
G1 X120.891 Y129.53 E18.8007
G0 F6000 X121.283 Y129.716
G1 F1200 X121.874 Y129.256 E18.83557
G1 X122.509 Y128.862 E18.87037
G1 X123.183 Y128.538 E18.90519
G1 X123.888 Y128.288 E18.94003
G1 X124.616 Y128.114 E18.97488
G1 X125.358 Y128.019 E19.00971
G1 X125.875 Y128 E19.0338
G1 X174.125 Y128 E21.28052
G1 X174.872 Y128.04 E21.31536
G1 X175.61 Y128.159 E21.35016
G1 X176.332 Y128.357 E21.38503
G1 X177.028 Y128.63 E21.41984
G1 X177.691 Y128.977 E21.45468
G1 X178.314 Y129.392 E21.48954
G1 X178.888 Y129.871 E21.52435
G1 X179.409 Y130.408 E21.55919
G1 X179.868 Y130.998 E21.594
G1 X180.263 Y131.634 E21.62886
G1 X180.587 Y132.308 E21.66368
G1 X180.837 Y133.013 E21.69851
G1 X181.011 Y133.741 E21.73337
G1 X181.106 Y134.483 E21.7682
G1 X181.125 Y135 E21.79229
G1 X181.126 Y163.5 E23.11937
G1 X181.086 Y164.247 E23.1542
G1 X180.967 Y164.985 E23.18901
G1 X180.785 Y165.658 E23.22147
G1 X180.704 Y165.908 E23.23371
G1 X180.436 Y166.606 E23.26853
G1 X179.898 Y167.59 E23.32075
G1 X179.816 Y167.715 E23.32771
G1 X179.373 Y168.317 E23.36251
G1 X178.868 Y168.869 E23.39735
G1 X178.307 Y169.364 E23.43218
G1 X177.569 Y169.875 E23.47398
G1 X177.356 Y170.003 E23.48555
G1 X176.82 Y170.294 E23.51395
G1 X176.57 Y170.416 E23.52691
G1 X175.881 Y170.708 E23.56175
G1 X175.165 Y170.924 E23.59658
G1 X174.43 Y171.063 E23.63141
G1 X173.5 Y171.125 E23.67481
G1 X126.499 Y171.126 E25.86337
G1 X125.752 Y171.086 E25.8982
G1 X125.014 Y170.967 E25.93301
G1 X124.292 Y170.769 E25.96787
G1 X123.795 Y170.583 E25.99258
G1 X123.346 Y170.395 E26.01525
G1 X122.673 Y170.069 E26.05007
G1 X122.038 Y169.674 E26.08489
G1 X121.449 Y169.213 E26.11972
G1 X120.912 Y168.692 E26.15456
G1 X120.434 Y168.117 E26.18938
G1 X120.02 Y167.493 E26.22425
G1 X119.55 Y166.535 E26.27394
G1 X119.375 Y166.097 E26.2959
G1 X119.135 Y165.389 E26.33071
G1 X118.972 Y164.659 E26.36554
G1 X118.887 Y163.915 E26.40041
G1 X118.875 Y163.503 E26.4196
G1 X118.874 Y161.193 E26.52716
G1 X118.874 Y161.19 E26.5273
G1 X118.875 Y135 E27.74682
G1 X118.915 Y134.253 E27.78165
G1 X119.034 Y133.514 E27.81651
G1 X119.232 Y132.793 E27.85132
G1 X119.506 Y132.097 E27.88615
G1 X119.852 Y131.433 E27.92101
G1 X120.267 Y130.811 E27.95583
G1 X120.746 Y130.236 E27.99068
G1 X121.283 Y129.716 E28.02549
G0 F6000 X121.141 Y130.402
G1 F1200 X121.674 Y129.909 E28.05929
G1 X122.259 Y129.478 E28.09313
G1 X122.888 Y129.115 E28.12695
G1 X123.553 Y128.822 E28.16078
G1 X124.246 Y128.604 E28.19461
G1 X124.958 Y128.464 E28.2284
G1 X125.875 Y128.4 E28.2712
G1 X174.125 Y128.4 E30.51793
G1 X174.85 Y128.44 E30.55174
G1 X175.567 Y128.559 E30.58558
G1 X176.266 Y128.757 E30.61941
G1 X176.939 Y129.03 E30.65323
G1 X177.578 Y129.375 E30.68704
G1 X178.175 Y129.789 E30.72087
G1 X178.723 Y130.265 E30.75467
G1 X179.216 Y130.799 E30.78851
G1 X179.646 Y131.384 E30.82232
G1 X180.01 Y132.013 E30.85616
G1 X180.303 Y132.678 E30.88999
G1 X180.521 Y133.371 E30.92382
G1 X180.661 Y134.083 E30.95761
G1 X180.725 Y135 E31.00041
G1 X180.726 Y163.5 E32.32749
G1 X180.686 Y164.225 E32.3613
G1 X180.567 Y164.942 E32.39515
G1 X180.405 Y165.534 E32.42373
G1 X180.324 Y165.784 E32.43596
G1 X180.062 Y166.462 E32.46981
G1 X179.564 Y167.37 E32.51803
G1 X179.482 Y167.495 E32.52499
G1 X179.05 Y168.08 E32.55885
G1 X178.557 Y168.613 E32.59266
G1 X178.009 Y169.089 E32.62646
G1 X177.363 Y169.532 E32.66294
G1 X177.15 Y169.66 E32.67451
G1 X176.645 Y169.934 E32.70126
G1 X176.395 Y170.056 E32.71421
G1 X175.725 Y170.339 E32.74808
G1 X175.029 Y170.545 E32.78188
G1 X174.314 Y170.675 E32.81572
G1 X173.5 Y170.725 E32.85369
G1 X126.499 Y170.726 E35.04226
G1 X125.774 Y170.686 E35.07607
G1 X125.057 Y170.567 E35.10991
G1 X124.358 Y170.369 E35.14374
G1 X123.95 Y170.214 E35.16406
G1 X123.501 Y170.026 E35.18673
G1 X122.847 Y169.709 E35.22057
G1 X122.233 Y169.322 E35.25436
G1 X121.664 Y168.87 E35.2882
G1 X121.149 Y168.358 E35.32202
G1 X120.693 Y167.793 E35.35583
G1 X120.302 Y167.181 E35.38964
G1 X119.921 Y166.387 E35.43065
G1 X119.746 Y165.949 E35.45261
G1 X119.514 Y165.26 E35.48647
G1 X119.359 Y164.551 E35.52026
G1 X119.275 Y163.503 E35.56922
G1 X119.274 Y161.193 E35.67678
G1 X119.274 Y161.19 E35.67692
G1 X119.275 Y135 E36.89643
G1 X119.315 Y134.274 E36.93029
G1 X119.434 Y133.558 E36.96409
G1 X119.632 Y132.859 E36.99792
G1 X119.905 Y132.186 E37.03174
G1 X120.25 Y131.547 E37.06555
G1 X120.664 Y130.95 E37.09938
G1 X121.141 Y130.402 E37.13321
G0 F6000 X121.535 Y130.573
G1 F1200 X122.064 Y130.109 E37.16597
G1 X122.643 Y129.709 E37.19874
G1 X123.264 Y129.377 E37.23153
G1 X123.918 Y129.117 E37.2643
G1 X124.598 Y128.933 E37.29711
G1 X125.294 Y128.827 E37.32989
G1 X125.875 Y128.8 E37.35697
G1 X174.125 Y128.8 E39.60369
G1 X174.828 Y128.84 E39.63648
G1 X175.522 Y128.959 E39.66927
G1 X176.197 Y129.157 E39.70202
G1 X176.846 Y129.429 E39.73479
G1 X177.46 Y129.774 E39.76758
G1 X178.031 Y130.185 E39.80034
G1 X178.552 Y130.659 E39.83314
G1 X179.016 Y131.189 E39.86594
G1 X179.416 Y131.768 E39.89871
G1 X179.748 Y132.389 E39.9315
G1 X180.008 Y133.043 E39.96427
G1 X180.192 Y133.723 E39.99707
G1 X180.298 Y134.419 E40.02986
G1 X180.325 Y135 E40.05694
G1 X180.326 Y163.5 E41.38402
G1 X180.286 Y164.203 E41.41681
G1 X180.167 Y164.896 E41.44955
G1 X180.024 Y165.411 E41.47444
G1 X179.943 Y165.661 E41.48667
G1 X179.688 Y166.317 E41.51945
G1 X179.229 Y167.151 E41.56377
G1 X179.147 Y167.276 E41.57073
G1 X178.728 Y167.842 E41.60352
G1 X178.248 Y168.356 E41.63627
G1 X177.712 Y168.813 E41.66907
G1 X177.157 Y169.189 E41.70029
G1 X176.944 Y169.317 E41.71186
G1 X176.469 Y169.575 E41.73703
G1 X176.219 Y169.697 E41.74998
G1 X175.57 Y169.969 E41.78275
G1 X174.894 Y170.166 E41.81553
G1 X174.2 Y170.285 E41.84832
G1 X173.5 Y170.325 E41.88097
G1 X126.499 Y170.326 E44.06953
G1 X125.796 Y170.286 E44.10232
G1 X125.102 Y170.167 E44.13511
G1 X124.104 Y169.845 E44.18394
G1 X123.655 Y169.657 E44.2066
G1 X123.023 Y169.349 E44.23934
G1 X122.429 Y168.971 E44.27213
G1 X121.882 Y168.528 E44.3049
G1 X121.388 Y168.025 E44.33773
G1 X120.955 Y167.471 E44.37047
G1 X120.587 Y166.87 E44.40329
G1 X120.293 Y166.238 E44.43574
G1 X120.118 Y165.8 E44.45771
G1 X119.894 Y165.133 E44.49047
G1 X119.747 Y164.444 E44.52327
G1 X119.675 Y163.503 E44.56722
G1 X119.674 Y161.193 E44.67478
G1 X119.674 Y161.19 E44.67492
G1 X119.675 Y135 E45.89444
G1 X119.715 Y134.297 E45.92723
G1 X119.834 Y133.603 E45.96001
G1 X120.032 Y132.927 E45.99281
G1 X120.304 Y132.278 E46.02558
G1 X120.649 Y131.664 E46.05837
G1 X121.061 Y131.093 E46.09116
G1 X121.535 Y130.573 E46.12392
G0 F6000 X121.928 Y130.75
G1 F1200 X122.453 Y130.317 E46.15561
G1 X123.025 Y129.948 E46.18731
G1 X123.637 Y129.649 E46.21902
G1 X124.279 Y129.424 E46.2507
G1 X124.944 Y129.275 E46.28243
G1 X125.875 Y129.2 E46.32593
G1 X174.125 Y129.2 E48.57265
G1 X174.805 Y129.24 E48.60437
G1 X175.475 Y129.359 E48.63605
G1 X176.127 Y129.556 E48.66777
G1 X176.751 Y129.828 E48.69946
G1 X177.339 Y130.172 E48.73119
G1 X177.883 Y130.582 E48.76291
G1 X178.374 Y131.053 E48.79459
G1 X178.808 Y131.578 E48.8263
G1 X179.177 Y132.15 E48.858
G1 X179.476 Y132.762 E48.88972
G1 X179.701 Y133.404 E48.92139
G1 X179.85 Y134.069 E48.95313
G1 X179.925 Y135 E48.99662
G1 X179.926 Y163.5 E50.3237
G1 X179.886 Y164.18 E50.35542
G1 X179.767 Y164.85 E50.3871
G1 X179.644 Y165.288 E50.40829
G1 X179.563 Y165.538 E50.42052
G1 X179.315 Y166.172 E50.45222
G1 X178.895 Y166.931 E50.49262
G1 X178.813 Y167.056 E50.49958
G1 X178.406 Y167.603 E50.53132
G1 X177.939 Y168.098 E50.56301
G1 X177.417 Y168.535 E50.59471
G1 X176.951 Y168.846 E50.6208
G1 X176.738 Y168.974 E50.63237
G1 X176.294 Y169.215 E50.6559
G1 X176.044 Y169.337 E50.66885
G1 X175.415 Y169.6 E50.70059
G1 X174.761 Y169.786 E50.73226
G1 X174.088 Y169.895 E50.764
G1 X173.5 Y169.925 E50.79142
G1 X126.499 Y169.926 E52.97998
G1 X125.819 Y169.886 E53.0117
G1 X125.149 Y169.767 E53.04338
G1 X124.259 Y169.476 E53.08699
G1 X123.81 Y169.288 E53.10965
G1 X123.198 Y168.989 E53.14137
G1 X122.626 Y168.62 E53.17306
G1 X122.101 Y168.186 E53.20478
G1 X121.63 Y167.694 E53.2365
G1 X121.221 Y167.15 E53.26819
G1 X120.878 Y166.562 E53.29989
G1 X120.664 Y166.09 E53.32402
G1 X120.489 Y165.652 E53.34598
G1 X120.274 Y165.006 E53.37768
G1 X120.136 Y164.339 E53.4094
G1 X120.075 Y163.503 E53.44843
G1 X120.074 Y161.193 E53.55599
G1 X120.074 Y161.19 E53.55613
G1 X120.075 Y135 E54.77565
G1 X120.115 Y134.32 E54.80737
G1 X120.234 Y133.65 E54.83905
G1 X120.431 Y132.998 E54.87077
G1 X120.704 Y132.374 E54.90249
G1 X121.047 Y131.786 E54.93418
G1 X121.457 Y131.242 E54.9659
G1 X121.928 Y130.75 E54.99762
G0 F6000 X122.32 Y130.935
G1 F1200 X122.84 Y130.534 E55.02819
G1 X123.405 Y130.198 E55.0588
G1 X124.006 Y129.934 E55.08937
G1 X124.635 Y129.744 E55.11997
G1 X125.283 Y129.633 E55.15058
G1 X125.875 Y129.6 E55.17819
G1 X174.125 Y129.6 E57.42491
G1 X174.781 Y129.64 E57.45551
G1 X175.427 Y129.759 E57.4861
G1 X176.054 Y129.956 E57.5167
G1 X176.652 Y130.228 E57.54729
G1 X177.213 Y130.57 E57.57789
G1 X177.728 Y130.978 E57.60848
G1 X178.19 Y131.445 E57.63907
G1 X178.591 Y131.965 E57.66965
G1 X178.927 Y132.529 E57.70022
G1 X179.191 Y133.131 E57.73082
G1 X179.381 Y133.76 E57.76142
G1 X179.492 Y134.407 E57.79199
G1 X179.525 Y135 E57.81964
G1 X179.526 Y163.5 E59.14672
G1 X179.486 Y164.156 E59.17732
G1 X179.367 Y164.802 E59.20791
G1 X179.263 Y165.164 E59.22545
G1 X179.182 Y165.414 E59.23769
G1 X178.942 Y166.026 E59.2683
G1 X178.56 Y166.712 E59.30486
G1 X178.478 Y166.837 E59.31182
G1 X178.085 Y167.363 E59.34239
G1 X177.631 Y167.838 E59.37299
G1 X177.123 Y168.254 E59.40356
G1 X176.744 Y168.504 E59.4247
G1 X176.531 Y168.632 E59.43628
G1 X176.118 Y168.856 E59.45815
G1 X175.868 Y168.978 E59.47111
G1 X175.261 Y169.23 E59.50171
G1 X174.628 Y169.406 E59.5323
G1 X173.979 Y169.504 E59.56287
G1 X173.5 Y169.525 E59.58519
G1 X126.499 Y169.526 E61.77375
G1 X125.843 Y169.486 E61.80436
G1 X125.197 Y169.367 E61.83494
G1 X124.413 Y169.107 E61.87341
G1 X123.964 Y168.919 E61.89607
G1 X123.375 Y168.629 E61.92664
G1 X122.825 Y168.269 E61.95725
G1 X122.323 Y167.846 E61.98782
G1 X121.876 Y167.364 E62.01843
G1 X121.491 Y166.832 E62.04901
G1 X121.173 Y166.257 E62.0796
G1 X121.035 Y165.942 E62.09562
G1 X120.86 Y165.504 E62.11758
G1 X120.654 Y164.88 E62.14818
G1 X120.525 Y164.236 E62.17876
G1 X120.475 Y163.502 E62.21302
G1 X120.474 Y161.192 E62.32058
G1 X120.474 Y161.19 E62.32067
G1 X120.475 Y135 E63.54019
G1 X120.515 Y134.344 E63.57079
G1 X120.634 Y133.698 E63.60138
G1 X120.831 Y133.071 E63.63198
G1 X121.103 Y132.473 E63.66257
G1 X121.445 Y131.912 E63.69317
G1 X121.853 Y131.397 E63.72376
G1 X122.32 Y130.935 E63.75435
G0 F6000 X122.248 Y131.559
G1 F1200 X122.711 Y131.128 E63.7838
G1 X123.225 Y130.76 E63.81324
